!!!OTL: PRINZ EUGEN DER EDLE RITTER
!!!ARE: Europa, Mitteleuropa, Deutschland
!!!SCT: E0324
!!!YEM: Copyright 1995, estate of Helmut Schaffrath.
**kern
*ICvox
*Ivox
!! 2+3 metric grouping
*M5/4
*k[f#]
*G:
{8d
8d
4g
4g
8g
8a
8b
8b}
=1
{8g
8a
4b
4dd
8dd
8cc
8cc
8b}
=2
{8a
8g
8a
8b
8cc
8b
4.a
8r}
=3
{8dd
8cc
4b
4dd
8ee
8dd
8cc
8b}
=4
{8a
8g
4a
4cc
8dd
8cc
8b
8a}
=5
{8g
8g
4g
4b
8a
8a
4g}
=6
{8dd
8cc
4b
4dd
8ee
8dd
8cc
8b}
=7
{8a
8g
4a
4cc
8dd
8cc
8b
8a}
=8
{8g
8g
4g
4b
8a
8a
4g}
==
!!!AGN: historisches Lied, Prinz Eugen (1717)
!! +++ nachtr„glich 5/4! eingetragen ++++++
!!!ONB: ESAC (Essen Associative Code) Database: ERK1
!!!AMT: simple quintuple
!!!AIN: vox
!!!EED: Helmut Schaffrath
!!!EEV: 1.0
*-
